X:2067 
T:Lewin's Total Hymn 
C:Shimmin
S:Traditional
O:Isle of Man
Z:Clague collection
B:Kiaull Vannin #67
M:4/4 
L:1/4 
K:D 
A|FE/D/ FA|de dF|GB/A/ A/G/F|E3 A|FD FA|Bc d2|ed cB|A3A|
GF ED|GF GA|BA dF|E3A|B/c/d ec|d2 BG|FA EC|D3||

